app/img/section-ico-3.svg

<?xml version="1.0" encoding="UTF-8" standalone="no"?>
<svg width="80px" height="90px" viewBox="0 0 80 90" version="1.1" xmlns="http://www.w3.org/2000/svg" xmlns:xlink="http://www.w3.org/1999/xlink">
    <!-- Generator: sketchtool 47.1 (45422) - http://www.bohemiancoding.com/sketch -->
    <title>9511BF64-D50A-4F03-B147-CF96550760D6</title>
    <desc>Created with sketchtool.</desc>
    <defs></defs>
    <g id="Page-1" stroke="none" stroke-width="1" fill="none" fill-rule="evenodd">
        <g id="main-1280" transform="translate(-600.000000, -4723.000000)">
            <g id="Group-25" transform="translate(600.000000, 4723.000000)">
                <path d="M44.8232707,1.29963498 L75.2232707,18.9648135 L75.2232707,18.9648135 C78.1804,20.6831759 80,23.8450348 80,27.2651785 L80,62.7031931 L80,62.7031931 C80,66.1233368 78.1804,69.2851957 75.2232707,71.0035581 L44.8232707,88.6687366 L44.8232707,88.6687366 C41.8412155,90.4015833 38.1587845,90.4015833 35.1767293,88.6687366 L4.77672927,71.0035581 L4.77672927,71.0035581 C1.81959999,69.2851957 3.73034936e-14,66.1233368 3.19744231e-14,62.7031931 L1.50990331e-14,27.2651785 L1.77635684e-14,27.2651785 C1.59872116e-14,23.8450348 1.81959999,20.6831759 4.77672927,18.9648135 L35.1767293,1.29963498 L35.1767293,1.29963498 C38.1587845,-0.433211659 41.8412155,-0.433211659 44.8232707,1.29963498 Z" id="Combined-Shape" fill="#FFFFFF"></path>
                <path d="M37.5737954,26.39397 C37.2937642,25.5874227 37.0539115,25.0912703 36.9163309,25.0912703 C36.7787504,25.0912703 36.5376801,25.5874227 36.2588665,26.39397 C35.8595177,27.5456667 35.601402,29.1563643 35.5709639,30.9600101 C35.578269,31.2308566 35.4784318,31.5040999 35.2714523,31.7138262 C34.8635808,32.1260881 34.1939411,32.1356756 33.7738943,31.7330012 C32.4407025,30.459064 31.0941179,29.4895295 29.9837335,28.9526303 C29.2045164,28.5763215 28.6761098,28.3929608 28.5774901,28.4900341 C28.4788704,28.5871074 28.6663696,29.1072285 29.0474554,29.8742273 C29.5929074,30.9660023 30.5778866,32.2926707 31.8721175,33.6049578 L31.8709,33.6061562 C32.0547466,33.7907153 32.1679765,34.0423868 32.1704116,34.3204239 C32.1777168,34.8956731 31.7101865,35.3666583 31.1257736,35.3738489 C29.2763505,35.4002145 27.6266017,35.6542829 26.4468183,36.0509651 C25.6274228,36.3266053 25.1233667,36.5626972 25.1233667,36.6981204 C25.1233667,36.8335436 25.6274228,37.0708339 26.4480358,37.3464741 C27.618079,37.7383626 29.254435,37.992431 31.0868128,38.0223919 C31.3619738,38.0152013 31.6395699,38.113473 31.8526371,38.3172071 C32.2702488,38.718683 32.279989,39.3790211 31.8721175,39.791283 C30.5778866,41.1035701 29.5929074,42.4290401 29.0474554,43.5220134 C28.6663696,44.2890123 28.4788704,44.807935 28.5774901,44.9062067 C28.6761098,45.00328 29.2045164,44.8199193 29.9837335,44.4424121 C31.0929004,43.9067113 32.4407025,42.9371768 33.7738943,41.6632396 L33.7751119,41.6632396 C33.962611,41.4834743 34.2182916,41.3720197 34.5007578,41.3684244 C35.0851707,41.3624323 35.5648762,41.8226316 35.5709639,42.3978807 C35.5977494,44.2171062 35.8570826,45.842185 36.2588665,47.0022708 C36.5376801,47.8100165 36.7787504,48.3049704 36.9163309,48.3049704 C37.0539115,48.3049704 37.2937642,47.8100165 37.5737954,47.0022708 C37.9731442,45.8505741 38.2312598,44.2410749 38.2604805,42.4386275 C38.2543928,42.1677811 38.35423,41.8933393 38.5599921,41.6824146 C38.9678635,41.2701527 39.6387208,41.2617637 40.0587675,41.6632396 C41.3919593,42.9371768 42.7397614,43.9055129 43.8489283,44.4424121 C44.6281455,44.8199193 45.1553346,45.00328 45.2551717,44.9062067 C45.3537914,44.807935 45.1662923,44.2890123 44.7852064,43.5220134 C44.2397544,42.4302385 43.2547753,41.1035701 41.9593268,39.791283 L41.9605443,39.7900846 C41.7779153,39.6055255 41.6634678,39.3550524 41.6610327,39.0758169 C41.6537276,38.5005677 42.1224754,38.0295825 42.7068882,38.0223919 C44.5550939,37.9960263 46.2060602,37.7407595 47.3858436,37.3464741 C48.2040216,37.0708339 48.7080777,36.8335436 48.7080777,36.6981204 C48.7080777,36.5626972 48.2040216,36.3266053 47.3858436,36.0509651 C46.2145828,35.6578782 44.5794444,35.4038098 42.7482841,35.3750473 C42.4719056,35.3810395 42.1943095,35.2839662 41.9800247,35.0790337 C41.5611955,34.6787562 41.5526729,34.0172197 41.9593268,33.6049578 C43.2547753,32.2926707 44.2397544,30.9660023 44.7852064,29.8742273 C45.1662923,29.1072285 45.3537914,28.5871074 45.2551717,28.4900341 C45.1553346,28.3929608 44.6281455,28.5763215 43.8489283,28.9526303 C42.7385439,29.4895295 41.3919593,30.459064 40.0587675,31.7330012 L40.05755,31.7330012 C39.8700509,31.9127665 39.6155878,32.024221 39.331904,32.0278164 C38.7487087,32.0338085 38.2677856,31.5736092 38.261698,30.9983601 C38.2349124,29.1791346 37.9755792,27.5540558 37.5737954,26.39397 Z M46.5238346,65.7182416 C45.3696193,65.7553931 44.2020111,65.5912074 43.0636236,65.1945252 L43.0648411,65.1933267 C42.6642748,65.0555066 42.3720684,64.6863884 42.3586756,64.2429672 C42.3148446,62.9654347 42.5242592,61.7358397 42.9345657,60.5949289 C43.6736045,58.5396116 45.0603675,56.7623314 46.8002132,55.4859973 C48.5437115,54.2048695 50.6512504,53.4186957 52.8281882,53.3491864 C53.9811861,53.3120349 55.1500118,53.4762206 56.2896168,53.8729028 L56.2896168,53.8741013 C56.6889656,54.0119214 56.981172,54.3810396 56.9945648,54.8244608 C57.0371783,56.1019933 56.8277637,57.3315884 56.4174571,58.4724992 C55.6796359,60.526618 54.2916554,62.3038982 52.5530272,63.5826291 C50.8095289,64.8625585 48.7007725,65.6487323 46.5238346,65.7182416 Z M44.4856948,63.43642 C44.5343959,62.6933898 44.6890218,61.9731299 44.9349622,61.2900216 C45.5291153,59.6361803 46.6553275,58.1992558 48.0700936,57.160212 C49.4799896,56.1235651 51.1699168,55.4871958 52.8951522,55.4320677 C53.5489641,55.4104959 54.2112986,55.474013 54.8675456,55.6298096 C54.8188445,56.3740382 54.6642186,57.0942981 54.4182782,57.7774064 C53.8241251,59.4300493 52.6979129,60.8681722 51.2831468,61.907216 C49.8720332,62.9438629 48.1821061,63.5802323 46.4568707,63.6353603 C45.8030588,63.6557337 45.1419418,63.593415 44.4856948,63.43642 Z M36.5425502,60.1598967 C35.532003,59.8794627 34.6285981,59.2610699 33.9492182,58.4461336 C33.2649682,57.6252051 32.8120482,56.6125269 32.7061234,55.5495144 C32.6732502,55.2139524 32.6744677,54.8735967 32.7146461,54.5308441 C33.00807,54.5536143 33.2954063,54.6051471 33.576655,54.6830454 C34.5884198,54.9634794 35.4906071,55.5818722 36.169987,56.3968085 C36.8530195,57.2165385 37.307157,58.2316136 37.4130819,59.297023 L37.4167344,59.3221901 C37.4459551,59.6469662 37.44352,59.9789329 37.4045592,60.312098 C37.1111352,60.2893277 36.8237989,60.237795 36.5425502,60.1598967 Z M38.3116166,62.3865903 C37.5007438,62.457298 36.713004,62.3746059 35.9715302,62.168475 C34.5348486,61.7705943 33.2613156,60.9041253 32.3152973,59.7692066 C31.371714,58.6390817 30.7471228,57.2321182 30.5985845,55.7460579 C30.5157927,54.9143435 30.5815392,54.0610573 30.8226095,53.2185569 C30.9492323,52.7691435 31.3571037,52.4719315 31.8075886,52.4563518 C32.6184614,52.3856441 33.4062013,52.4671377 34.1476751,52.6732687 C35.5855742,53.0723478 36.8578896,53.9376184 37.8039079,55.0737354 C38.7474912,56.2038603 39.3720824,57.608427 39.5218382,59.0932889 L39.5230557,59.1232498 C39.602195,59.9465751 39.535231,60.7914723 39.2965958,61.6243851 C39.1687554,62.0737985 38.7621015,62.3710106 38.3116166,62.3865903 Z M41.0887952,65.301186 C42.357458,61.7466256 42.8627317,57.8744797 42.7300212,54.0023339 C42.6314016,51.10931 42.1772641,48.2150878 41.42118,45.4490981 C41.9422814,45.7942476 42.447555,46.084269 42.9199554,46.3131703 C44.5429186,47.0981457 45.9430744,47.184433 46.7563822,46.383878 C47.5696901,45.5845213 47.4832457,44.2051218 46.6845482,42.607607 C46.2803293,41.7974644 45.6861762,40.8938439 44.9398323,39.9698499 C46.1342261,39.8368236 47.2032146,39.6127161 48.0652235,39.3226946 C49.7795012,38.7474455 50.8326619,37.8306422 50.8326619,36.6981204 C50.8326619,35.5655986 49.7795012,34.6487953 48.0652235,34.0747446 C47.2032146,33.7847231 46.1342261,33.5594172 44.9398323,33.4275893 C45.6861762,32.5023969 46.2803293,31.5987764 46.6845482,30.7886338 C47.4832457,29.191119 47.5696901,27.8129179 46.7563822,27.0123628 C45.9442919,26.2130062 44.5429186,26.2968967 42.9199554,27.0830705 C42.0969073,27.4809512 41.1788921,28.0657878 40.2389615,28.8004289 C40.103816,27.6247635 39.877356,26.5725369 39.5827145,25.7240444 C38.9983017,24.0366469 38.0668937,23 36.9163309,23 C35.7657681,23 34.8343602,24.0366469 34.2499473,25.7240444 C33.9553058,26.5725369 33.7288459,27.6247635 33.5924829,28.8004289 C32.6537697,28.0657878 31.7357545,27.4809512 30.9127064,27.0830705 C29.2897433,26.2968967 27.88837,26.2118078 27.0762796,27.0123628 C26.2629717,27.8129179 26.3494161,29.191119 27.1468962,30.7886338 C27.551115,31.5987764 28.1464856,32.5023969 28.8928295,33.4275893 C27.6984358,33.5594172 26.6306648,33.7835247 25.7674383,34.0735461 C24.0519431,34.6487953 23,35.5655986 23,36.6981204 C23,37.8306422 24.0519431,38.7474455 25.7674383,39.3226946 C26.6306648,39.6127161 27.6984358,39.8368236 28.8928295,39.9698499 C28.1464856,40.8938439 27.551115,41.7974644 27.1468962,42.607607 C26.3494161,44.2051218 26.2629717,45.5845213 27.0762796,46.383878 C27.88837,47.184433 29.2897433,47.0981457 30.9127064,46.3131703 C31.7357545,45.9152896 32.6537697,45.330453 33.5924829,44.5958119 C33.7288459,45.7714773 33.9553058,46.8237039 34.2499473,47.6721964 C34.8343602,49.3595939 35.7657681,50.3962408 36.9163309,50.3962408 C38.0668937,50.3962408 38.9983017,49.3595939 39.5827145,47.6721964 C39.6241105,47.5487575 39.6667239,47.4217233 39.7069023,47.2898954 C40.2243512,49.5034062 40.5372555,51.7864262 40.6139597,54.0670494 C40.7381474,57.6947144 40.2681821,61.310395 39.0883987,64.6144823 C38.8960295,65.1585721 39.1870183,65.7517978 39.7397755,65.9411506 C40.2913151,66.1317019 40.8952084,65.8440773 41.0887952,65.301186 Z M37.9999298,35.6315126 C37.7235512,35.3582692 37.3400302,35.1892898 36.9163309,35.1892898 C36.4926316,35.1892898 36.1103282,35.3582692 35.8327321,35.6315126 L35.8302971,35.6291157 C35.555136,35.9023591 35.3834647,36.2798663 35.3834647,36.6981204 C35.3834647,37.115176 35.555136,37.4926833 35.8327321,37.7647282 L35.8302971,37.7671251 L35.8327321,37.7695219 C36.1078932,38.03917 36.4901966,38.206951 36.9163309,38.206951 C37.3217673,38.206951 37.6870254,38.0559481 37.9585338,37.8078719 C37.9719266,37.7934907 37.986537,37.7791094 37.9999298,37.7647282 C38.2775259,37.4926833 38.4491971,37.115176 38.4491971,36.6981204 C38.4491971,36.3014382 38.2945712,35.9395106 38.0425432,35.671061 C38.0279329,35.6578782 38.0133225,35.6446954 37.9999298,35.6315126 Z M36.9163309,33.0980195 C37.9256606,33.0980195 38.8400232,33.5018923 39.5023578,34.1526429 C39.5230557,34.1754132 39.5449712,34.196985 39.5656692,34.2209537 C40.1890429,34.8657122 40.5737813,35.7381734 40.5737813,36.6981204 C40.5737813,37.6916236 40.1634748,38.5928473 39.5023578,39.2435979 C39.4792248,39.2651697 39.4560918,39.2855431 39.4317412,39.3059165 C38.7742768,39.9207141 37.8891348,40.2970229 36.9163309,40.2970229 C35.9106538,40.2970229 34.9975087,39.8943485 34.3327391,39.241201 L34.3303041,39.2435979 C33.669187,38.5928473 33.2588805,37.6916236 33.2588805,36.6981204 C33.2588805,35.707014 33.669187,34.8081872 34.3303041,34.1562382 L34.3327391,34.1550398 L34.3303041,34.1526429 C34.9926386,33.5018923 35.9070012,33.0980195 36.9163309,33.0980195 L36.9163309,33.0980195 Z" id="Fill-20" fill="#FECE00"></path>
            </g>
        </g>
    </g>
</svg>

<svg xmlns="http://www.w3.org/2000/svg" width="80" height="82" viewBox="0 0 80 82">
    <g fill="none" fill-rule="evenodd">
        <path fill="#FFF" d="M44.823 1.3l30.4 17.665a9.6 9.6 0 0 1 4.777 8.3V72.33a9.6 9.6 0 0 1-9.6 9.6H9.6a9.6 9.6 0 0 1-9.6-9.6V27.265a9.6 9.6 0 0 1 4.777-8.3L35.177 1.3a9.6 9.6 0 0 1 9.646 0z"/>
        <path fill="#86BD3E" d="M37.574 26.394c-.28-.807-.52-1.303-.658-1.303-.137 0-.378.496-.657 1.303-.4 1.152-.658 2.762-.688 4.566a1.03 1.03 0 0 1-.3.754 1.07 1.07 0 0 1-1.497.019c-1.333-1.274-2.68-2.243-3.79-2.78-.78-.377-1.308-.56-1.407-.463-.098.097.09.617.47 1.384.546 1.092 1.53 2.419 2.825 3.731l-.001.001c.184.185.297.436.3.714a1.048 1.048 0 0 1-1.045 1.054c-1.85.026-3.5.28-4.68.677-.819.276-1.323.512-1.323.647 0 .136.504.373 1.325.648 1.17.392 2.806.646 4.639.676.275-.007.553.091.766.295.417.402.427 1.062.02 1.474-1.295 1.313-2.28 2.638-2.826 3.731-.38.767-.568 1.286-.47 1.384.1.097.628-.086 1.407-.464 1.109-.535 2.457-1.505 3.79-2.779h.001c.188-.18.443-.291.726-.295a1.05 1.05 0 0 1 1.07 1.03c.027 1.82.286 3.444.688 4.604.279.808.52 1.303.657 1.303.138 0 .378-.495.658-1.303.4-1.151.657-2.76.686-4.563-.006-.271.094-.546.3-.757a1.073 1.073 0 0 1 1.499-.019c1.333 1.274 2.68 2.243 3.79 2.78.78.377 1.306.56 1.406.463.099-.098-.089-.617-.47-1.384-.545-1.092-1.53-2.418-2.826-3.73l.002-.002a1.024 1.024 0 0 1-.3-.714 1.05 1.05 0 0 1 1.046-1.054c1.848-.026 3.5-.281 4.679-.676.818-.275 1.322-.512 1.322-.648 0-.135-.504-.371-1.322-.647-1.171-.393-2.807-.647-4.638-.676a1.072 1.072 0 0 1-.768-.296 1.032 1.032 0 0 1-.02-1.474c1.295-1.312 2.28-2.639 2.825-3.73.381-.768.569-1.288.47-1.385-.1-.097-.627.086-1.406.463-1.11.537-2.457 1.506-3.79 2.78h-.001c-.188.18-.442.291-.726.295a1.051 1.051 0 0 1-1.07-1.03c-.027-1.819-.286-3.444-.688-4.604zm8.95 39.324a9.545 9.545 0 0 1-3.46-.523v-.002a1.04 1.04 0 0 1-.705-.95 9.762 9.762 0 0 1 .576-3.648c.739-2.055 2.125-3.833 3.865-5.109 1.744-1.281 3.851-2.067 6.028-2.137a9.56 9.56 0 0 1 3.462.524v.001c.399.138.691.507.705.95a9.788 9.788 0 0 1-.578 3.648c-.737 2.055-2.125 3.832-3.864 5.11-1.743 1.28-3.852 2.067-6.03 2.136zm-2.038-2.282a7.845 7.845 0 0 1 .449-2.146c.594-1.654 1.72-3.09 3.135-4.13 1.41-1.036 3.1-1.673 4.825-1.728a7.465 7.465 0 0 1 1.973.198 7.844 7.844 0 0 1-.45 2.147c-.594 1.653-1.72 3.091-3.135 4.13-1.411 1.037-3.1 1.673-4.826 1.728a7.457 7.457 0 0 1-1.971-.199zm-7.943-3.276c-1.011-.28-1.914-.899-2.594-1.714-.684-.82-1.137-1.833-1.243-2.896a4.753 4.753 0 0 1 .009-1.02c.293.024.58.075.862.153 1.011.28 1.914.899 2.593 1.714.683.82 1.137 1.835 1.243 2.9l.004.025c.029.325.027.657-.012.99a4.539 4.539 0 0 1-.862-.152zm1.769 2.227a6.579 6.579 0 0 1-2.34-.219c-1.437-.397-2.71-1.264-3.657-2.399-.943-1.13-1.568-2.537-1.716-4.023a6.732 6.732 0 0 1 .224-2.527c.126-.45.534-.747.985-.763.81-.07 1.598.011 2.34.217 1.438.4 2.71 1.265 3.656 2.4.943 1.13 1.568 2.535 1.718 4.02l.001.03a6.72 6.72 0 0 1-.226 2.501c-.128.45-.535.747-.985.763zm2.777 2.914c1.268-3.554 1.774-7.427 1.641-11.299a37.424 37.424 0 0 0-1.309-8.553 13.05 13.05 0 0 0 1.499.864c1.623.785 3.023.871 3.836.07.814-.798.727-2.178-.071-3.775-.405-.81-.999-1.714-1.745-2.638 1.194-.133 2.263-.357 3.125-.647 1.715-.576 2.768-1.492 2.768-2.625 0-1.132-1.053-2.05-2.768-2.623-.862-.29-1.93-.516-3.125-.647.746-.926 1.34-1.83 1.745-2.64.798-1.597.885-2.975.071-3.776-.812-.799-2.213-.715-3.836.071-.823.398-1.741.983-2.681 1.717-.135-1.175-.362-2.227-.656-3.076C38.998 24.037 38.067 23 36.916 23c-1.15 0-2.082 1.037-2.666 2.724-.295.849-.521 1.9-.658 3.076-.938-.734-1.856-1.319-2.68-1.717-1.622-.786-3.024-.871-3.836-.07-.813.8-.727 2.178.07 3.776.405.81 1 1.713 1.747 2.639-1.195.131-2.262.356-3.126.646-1.715.575-2.767 1.492-2.767 2.624 0 1.133 1.052 2.05 2.767 2.625.864.29 1.931.514 3.126.647-.747.924-1.342 1.827-1.746 2.638-.798 1.597-.884 2.977-.07 3.776.811.8 2.213.714 3.836-.07.823-.399 1.74-.984 2.68-1.718.136 1.175.362 2.228.657 3.076.584 1.688 1.516 2.724 2.666 2.724s2.082-1.036 2.667-2.724c.041-.123.084-.25.124-.382.517 2.213.83 4.496.907 6.777.124 3.628-.346 7.243-1.526 10.547a1.037 1.037 0 0 0 .652 1.327 1.064 1.064 0 0 0 1.349-.64zm-3.09-29.67a1.537 1.537 0 0 0-1.083-.442c-.423 0-.806.17-1.083.443l-.003-.003c-.275.273-.447.65-.447 1.07 0 .416.172.794.45 1.066l-.003.002.003.003c.275.27.657.437 1.083.437.406 0 .771-.151 1.043-.4l.04-.042a1.497 1.497 0 0 0 .043-2.094c-.014-.013-.029-.026-.042-.04zm-1.083-2.533a3.68 3.68 0 0 1 2.586 1.055c.021.022.043.044.064.068a3.554 3.554 0 0 1-.064 5.023 1.735 1.735 0 0 1-.07.062 3.671 3.671 0 0 1-2.516.991 3.676 3.676 0 0 1-2.583-1.056l-.003.003a3.563 3.563 0 0 1-1.071-2.546c0-.991.41-1.89 1.071-2.542l.003-.001-.003-.002a3.68 3.68 0 0 1 2.586-1.055z"/>
    </g>
</svg>
